client/images/playlist.svg

<?xml version="1.0" encoding="UTF-8" standalone="no"?>
<!-- Created with Inkscape (http://www.inkscape.org/) -->

<svg
   xmlns:dc="http://purl.org/dc/elements/1.1/"
   xmlns:cc="http://creativecommons.org/ns#"
   xmlns:rdf="http://www.w3.org/1999/02/22-rdf-syntax-ns#"
   xmlns:svg="http://www.w3.org/2000/svg"
   xmlns="http://www.w3.org/2000/svg"
   xmlns:sodipodi="http://sodipodi.sourceforge.net/DTD/sodipodi-0.dtd"
   xmlns:inkscape="http://www.inkscape.org/namespaces/inkscape"
   width="35.433071"
   height="35.433071"
   id="svg2"
   version="1.1"
   inkscape:version="0.48.4 r9939"
   sodipodi:docname="playlist.svg">
  <sodipodi:namedview
     id="base"
     pagecolor="#ffffff"
     bordercolor="#666666"
     borderopacity="1.0"
     inkscape:pageopacity="0.0"
     inkscape:pageshadow="2"
     inkscape:zoom="22.279382"
     inkscape:cx="9.8847849"
     inkscape:cy="17.654675"
     inkscape:document-units="px"
     inkscape:current-layer="layer1"
     showgrid="true"
     units="cm"
     inkscape:window-width="1920"
     inkscape:window-height="1015"
     inkscape:window-x="0"
     inkscape:window-y="28"
     inkscape:window-maximized="1">
    <inkscape:grid
       originy="0cm"
       originx="0cm"
       spacingy="0.0125cm"
       spacingx="0.1cm"
       units="cm"
       snapvisiblegridlinesonly="true"
       enabled="true"
       visible="true"
       empspacing="5"
       id="grid2985"
       type="xygrid" />
  </sodipodi:namedview>
  <defs
     id="defs4">
    <linearGradient
       id="linearGradient5256">
      <stop
         id="stop5258"
         offset="0"
         style="stop-color:#acacac;stop-opacity:1;" />
      <stop
         id="stop5260"
         offset="1"
         style="stop-color:#acacac;stop-opacity:0.99342108;" />
    </linearGradient>
    <linearGradient
       id="linearGradient3798">
      <stop
         id="stop3800"
         offset="0"
         style="stop-color:#acacac;stop-opacity:1;" />
      <stop
         id="stop3802"
         offset="1"
         style="stop-color:#acacac;stop-opacity:0.68421054;" />
    </linearGradient>
  </defs>
  <metadata
     id="metadata7">
    <rdf:RDF>
      <cc:Work
         rdf:about="">
        <dc:format>image/svg+xml</dc:format>
        <dc:type
           rdf:resource="http://purl.org/dc/dcmitype/StillImage" />
        <dc:title />
      </cc:Work>
    </rdf:RDF>
  </metadata>
  <g
     transform="translate(0,-1016.9291)"
     id="layer1"
     inkscape:groupmode="layer"
     inkscape:label="Calque 1">
    <path
       style="fill:#acacac;fill-opacity:1;fill-rule:evenodd;stroke:none"
       d="m 7.0625,5.3125 4.03125,3.53125 20.34375,0 c 0.245364,0 0.4375,-0.1922 0.4375,-0.4375 l 0,-2.65625 c 0,-0.2454 -0.192136,-0.4375 -0.4375,-0.4375 z m 10.654035,10.613189 2.03125,1.78125 -2.03125,1.78125 L 31.4375,19.5 c 0.245352,2.11e-4 0.4375,-0.22335 0.4375,-0.46875 l 0,-2.65625 c 0,-0.2454 -0.192148,-0.4375 -0.4375,-0.4375 z M 11.125,26.5625 7.0625,30.125 l 24.375,0 c 0.245372,0 0.4375,-0.1921 0.4375,-0.4375 l 0,-2.65625 c 0,-0.2454 -0.192128,-0.46875 -0.4375,-0.46875 z"
       transform="translate(0,1016.9291)"
       id="rect3010"
       inkscape:connector-curvature="0"
       sodipodi:nodetypes="ccssssccccsssscccssssc" />
    <path
       style="fill:#acacac;fill-opacity:1;stroke:none"
       d="m 3.5433071,8.858268 0,17.716535 10.6299209,-8.858267 z"
       id="path5393"
       inkscape:connector-curvature="0"
       transform="translate(0,1016.9291)"
       sodipodi:nodetypes="cccc" />
  </g>
</svg>

<?xml version="1.0" encoding="UTF-8" standalone="no"?>
<!-- Created with Inkscape (http://www.inkscape.org/) -->

<svg
   xmlns:dc="http://purl.org/dc/elements/1.1/"
   xmlns:cc="http://creativecommons.org/ns#"
   xmlns:rdf="http://www.w3.org/1999/02/22-rdf-syntax-ns#"
   xmlns:svg="http://www.w3.org/2000/svg"
   xmlns="http://www.w3.org/2000/svg"
   xmlns:sodipodi="http://sodipodi.sourceforge.net/DTD/sodipodi-0.dtd"
   xmlns:inkscape="http://www.inkscape.org/namespaces/inkscape"
   width="35.433071"
   height="35.433071"
   id="svg2"
   version="1.1"
   inkscape:version="0.48.4 r9939"
   sodipodi:docname="playlist.svg">
  <sodipodi:namedview
     id="base"
     pagecolor="#ffffff"
     bordercolor="#666666"
     borderopacity="1.0"
     inkscape:pageopacity="0.0"
     inkscape:pageshadow="2"
     inkscape:zoom="22.279382"
     inkscape:cx="9.8847849"
     inkscape:cy="17.654675"
     inkscape:document-units="px"
     inkscape:current-layer="layer1"
     showgrid="true"
     units="cm"
     inkscape:window-width="1920"
     inkscape:window-height="1017"
     inkscape:window-x="0"
     inkscape:window-y="30"
     inkscape:window-maximized="1">
    <inkscape:grid
       originy="0cm"
       originx="0cm"
       spacingy="0.0125cm"
       spacingx="0.1cm"
       units="cm"
       snapvisiblegridlinesonly="true"
       enabled="true"
       visible="true"
       empspacing="5"
       id="grid2985"
       type="xygrid" />
  </sodipodi:namedview>
  <defs
     id="defs4">
    <linearGradient
       id="linearGradient5256">
      <stop
         id="stop5258"
         offset="0"
         style="stop-color:#acacac;stop-opacity:1;" />
      <stop
         id="stop5260"
         offset="1"
         style="stop-color:#acacac;stop-opacity:0.99342108;" />
    </linearGradient>
    <linearGradient
       id="linearGradient3798">
      <stop
         id="stop3800"
         offset="0"
         style="stop-color:#acacac;stop-opacity:1;" />
      <stop
         id="stop3802"
         offset="1"
         style="stop-color:#acacac;stop-opacity:0.68421054;" />
    </linearGradient>
  </defs>
  <metadata
     id="metadata7">
    <rdf:RDF>
      <cc:Work
         rdf:about="">
        <dc:format>image/svg+xml</dc:format>
        <dc:type
           rdf:resource="http://purl.org/dc/dcmitype/StillImage" />
        <dc:title />
      </cc:Work>
    </rdf:RDF>
  </metadata>
  <g
     transform="translate(0,-1016.9291)"
     id="layer1"
     inkscape:groupmode="layer"
     inkscape:label="Calque 1">
    <path
       style="fill:#acacac;fill-opacity:1;fill-rule:evenodd;stroke:none"
       d="M 7.0625 5.3125 L 11.09375 8.84375 L 31.4375 8.84375 C 31.682864 8.84375 31.875 8.65155 31.875 8.40625 L 31.875 5.75 C 31.875 5.5046 31.682864 5.3125 31.4375 5.3125 L 7.0625 5.3125 z M 19.21875 15.9375 L 21.25 17.71875 L 19.21875 19.5 L 31.4375 19.5 C 31.682852 19.5 31.875 19.27665 31.875 19.03125 L 31.875 16.375 C 31.875 16.1296 31.682852 15.9375 31.4375 15.9375 L 19.21875 15.9375 z M 11.125 26.5625 L 7.0625 30.125 L 31.4375 30.125 C 31.682872 30.125 31.875 29.9329 31.875 29.6875 L 31.875 27.03125 C 31.875 26.78585 31.682872 26.5625 31.4375 26.5625 L 11.125 26.5625 z "
       transform="translate(0,1016.9291)"
       id="rect3010" />
    <path
       style="fill:#acacac;fill-opacity:1;stroke:none"
       d="m 3.5433071,8.858268 0,17.716535 10.6299209,-8.858267 z"
       id="path5393"
       inkscape:connector-curvature="0"
       transform="translate(0,1016.9291)"
       sodipodi:nodetypes="cccc" />
  </g>
</svg>
